!!!COM: Gaspar van Weerbeke
!!!CDT: ~1450-~1517
!!!OTL: O beate Sebastiane
!!!AGN: Motet
!!!SCT: Gas0413
!!!SCA: Gas0413
!!!voices: 4
**kern	**text	**kern	**text	**kern	**text	**kern	**text
*part4	*part4	*part3	*part3	*part2	*part2	*part1	*part1
*staff4	*staff4	*staff3	*staff3	*staff2	*staff2	*staff1	*staff1
*I"Bassus	*	*I"Tenor	*	*I"Altus	*	*I"Superius	*
*I'B	*	*I'T	*	*I'A	*	*I'S	*
*clefF4	*	*clefGv2	*	*clefGv2	*	*clefG2	*
*k[b-]	*	*k[b-]	*	*k[b-]	*	*k[b-]	*
*M2/2	*	*M2/2	*	*M2/2	*	*M2/2	*
*met(C|)	*	*met(C|)	*	*met(C|)	*	*met(C|)	*
=1	=1	=1	=1	=1	=1	=1	=1
1GG	O	1G	O	1d	O	1g	O
=2	=2	=2	=2	=2	=2	=2	=2
1D	be-	1A	be-	1d	be-	1f	be-
=3	=3	=3	=3	=3	=3	=3	=3
1GG	-a-	1G	-a-	1d	-a-	1b-y	-a-
=4	=4	=4	=4	=4	=4	=4	=4
1D	-te	1F	-te	1f	-te	1a	-te
=5	=5	=5	=5	=5	=5	=5	=5
2GG	Se-	1G	Se-	1d	Se-	2g	Se-
[2G	-ba-	.	.	.	.	[2b-y	-ba-
=6	=6	=6	=6	=6	=6	=6	=6
4G]	.	1G	-ba-	2.e-X	-ba-	4b-]	.
4F	.	.	.	.	.	4a	.
[2E-X	-sti-	.	.	.	.	[2g	-sti-
.	.	.	.	4d	.	.	.
!!LO:LB:g=original
=7	=7	=7	=7	=7	=7	=7	=7
4E-]	.	1G	-sti-	4.c	-sti-	4g]	.
4D	.	.	.	.	.	4f	.
.	.	.	.	8B-y	.	.	.
4C	.	.	.	[2c	-a-	4.e-i	-a-
4BB-y	.	.	.	.	.	.	.
.	.	.	.	.	.	8d	.
=8	=8	=8	=8	=8	=8	=8	=8
1C	-a-	1G	-a-	4c]	.	1e-i	.
.	.	.	.	4B-y	.	.	.
.	.	.	.	2c	.	.	.
=9	=9	=9	=9	=9	=9	=9	=9
1BB-y;	-ne,	1B-y;	-ne,	1F;	-ne,	1d;	-ne,
=10	=10	=10	=10	=10	=10	=10	=10
*	*	*	*	*	*	*lig	*
1r	.	1r	.	1r	.	2a	mi-
.	.	.	.	.	.	2b-y	.
*	*	*	*	*	*	*Xlig	*
=11	=11	=11	=11	=11	=11	=11	=11
*	*	*	*	*lig	*	*	*
1r	.	1r	.	2A	mi-	2cc	-les
.	.	.	.	2B-y	.	4b-y	.
*	*	*	*	*Xlig	*	*	*
.	.	.	.	.	.	[4g	.
!!LO:LB:g=original
=12	=12	=12	=12	=12	=12	=12	=12
1r	.	1r	.	4c	-les	4g]	.
*	*	*	*	*lig	*	*	*
.	.	.	.	2A	.	2a	.
.	.	.	.	[4d	.	[4f	.
=13	=13	=13	=13	=13	=13	=13	=13
1r	.	[1A	mi-	4d]	.	4f]	.
*	*	*	*	*Xlig	*	*	*
.	.	.	.	8cL	.	8eL	.
.	.	.	.	8B-yJ	.	8dJ	.
.	.	.	.	2c	.	2e	.
=14	=14	=14	=14	=14	=14	=14	=14
1D	mi-	2A]	.	1r	.	1d	.
.	.	[2B-y	-les	.	.	.	.
=15	=15	=15	=15	=15	=15	=15	=15
2E-i	-les	1B-]	.	1r	.	1r	.
2D	.	.	.	.	.	.	.
=16	=16	=16	=16	=16	=16	=16	=16
2C	be-	2.c	be-	1r	.	1r	.
4.F	-a-	.	.	.	.	.	.
.	.	[4c	-a-	.	.	.	.
8G	.	.	.	.	.	.	.
!!LO:LB:g=original
=17	=17	=17	=17	=17	=17	=17	=17
2A	-tis-	4c]	.	1r	.	1r	.
.	.	8B-yL	.	.	.	.	.
.	.	8AJ	.	.	.	.	.
2G	.	2B-y	-tis-	.	.	.	.
=18	=18	=18	=18	=18	=18	=18	=18
2F	-si-	4c	.	1r	.	1r	.
.	.	2A	-si-	.	.	.	.
4.D	.	.	.	.	.	.	.
.	.	[4d	.	.	.	.	.
8E	.	.	.	.	.	.	.
=19	=19	=19	=19	=19	=19	=19	=19
4F	.	4d]	.	2r	.	2r	.
4G	.	8c#iL	.	.	.	.	.
.	.	8BniJ	.	.	.	.	.
2E	.	2c#i	.	2G	be-	2g	be-
=20	=20	=20	=20	=20	=20	=20	=20
4.D	-me,	[1d	-me,	2.A	-a-	4.f	-a-
8E	.	.	.	.	.	8g	.
8FL	.	.	.	.	.	8aL	-tis-
16EL	.	.	.	.	.	16gL	.
16FJJ	.	.	.	.	.	16aJJ	.
[4G	.	.	.	4G	.	[4b-y	.
=21	=21	=21	=21	=21	=21	=21	=21
8G]L	.	1d]	.	2d	-tis-	8b-]L	.
8FJ	.	.	.	.	.	8aJ	.
2G	.	.	.	.	.	2b-y	-si-
.	.	.	.	4.d	-si-	.	.
8FL	.	.	.	.	.	8aL	.
8EJ	.	.	.	8e	.	8gJ	.
!!LO:PB:g=original
=22	=22	=22	=22	=22	=22	=22	=22
*	*	*	*edit	*	*	*	*
4D	.	1d	be-	4f	.	4f	.
4GG	.	.	.	2d	.	2g	.
*	*edit	*	*	*	*	*	*
[2G	be-	.	.	.	.	.	.
.	.	.	.	[4g	.	8fL	.
.	.	.	.	.	.	8eJ	.
=23	=23	=23	=23	=23	=23	=23	=23
4G]	.	2.B-y	-a-	4g]	.	4d	.
2G	-a-	.	.	8fL	.	4.dd	.
.	.	.	.	8eJ	.	.	.
.	.	.	.	2d	.	.	.
.	.	.	.	.	.	8cc	.
[4GG	-tis-	4A	.	.	.	[4dd	.
=24	=24	=24	=24	=24	=24	=24	=24
2GG]	.	1G	-tis-	8GL	.	8dd]L	.
.	.	.	.	8A	.	8cc	.
.	.	.	.	8B-y	.	8b-y	.
.	.	.	.	8cJ	.	8aJ	.
2GG	-si-	.	.	4.d	.	2b-y	-me,
.	.	.	.	8e	.	.	.
=25	=25	=25	=25	=25	=25	=25	=25
*	*	*	*	*	*	*	*edit
4.D	-me,	2F	-si-	4.f	.	4.a	be-
8E	.	.	.	8e	.	8f	.
2F	.	2A	.	2c	-me,	2cc	-a-
=26	=26	=26	=26	=26	=26	=26	=26
2G	be-	2B-y	.	2r	.	4b-y	.
.	.	.	.	.	.	2g	-tis-
*	*	*	*	*	*edit	*	*
4E	.	[2c	.	2c	be-	.	.
[4F	-a-	.	.	.	.	[4a	-si-
!!LO:LB:g=original
=27	=27	=27	=27	=27	=27	=27	=27
4F]	.	1c]	.	4.A	-a-	4a]	.
8EL	.	.	.	.	.	8gL	.
8DJ	.	.	.	8B-y	.	8fJ	.
2C	-tis-	.	.	4c	-tis-	4e	.
.	.	.	.	4G	.	[4g	.
=28	=28	=28	=28	=28	=28	=28	=28
4GG	.	2B-y	.	4.g	.	8g]L	.
.	.	.	.	.	.	8fJ	.
2G	.	.	.	.	.	2d	.
.	.	.	.	8f	.	.	.
.	.	2G	.	8gL	.	.	.
.	.	.	.	8fJ	.	.	.
8FL	.	.	.	[4d	.	[4b-y	.
8EJ	.	.	.	.	.	.	.
=29	=29	=29	=29	=29	=29	=29	=29
4.D	.	1A	.	8d]	.	4b-]	.
.	.	.	.	8e	.	.	.
.	.	.	.	4f	.	8aL	.
8C	.	.	.	.	.	8gJ	.
2D	-si-	.	.	4.d	.	4.f#i	.
.	.	.	.	8c	.	8e	.
=30	=30	=30	=30	=30	=30	=30	=30
4.GG	-me,	1G	-me,	2.d	-si-	1g	-me,
8AA	.	.	.	.	.	.	.
4BB-y	.	.	.	.	.	.	.
[4C	.	.	.	[4e-j	.	.	.
=31	=31	=31	=31	=31	=31	=31	=31
8C]L	.	1r	.	8e-]L	.	1r	.
8BB-y	.	.	.	8d	.	.	.
8AA	.	.	.	8c	.	.	.
8GGJ	.	.	.	8B-yJ	.	.	.
2D	.	.	.	4.A	.	.	.
.	.	.	.	8G	.	.	.
!!LO:LB:g=original
=32	=32	=32	=32	=32	=32	=32	=32
*lig	*Xedit	*lig	*Xedit	*	*Xedit	*	*
2GG	cu-	2G	cu-	2B-y	-me,	1r	.
2D	.	2F	.	2A	.	.	.
*Xlig	*	*Xlig	*	*	*	*	*
=33	=33	=33	=33	=33	=33	=33	=33
4.BB-y	-ius	2.B-y	-ius	1r	.	1r	.
8C	.	.	.	.	.	.	.
4D	.	.	.	.	.	.	.
4E-i	.	4G	.	.	.	.	.
=34	=34	=34	=34	=34	=34	=34	=34
4.C	pre-	2.c	pre-	1r	.	1r	.
8D	.	.	.	.	.	.	.
4E	.	.	.	.	.	.	.
4F	.	[4d	.	.	.	.	.
=35	=35	=35	=35	=35	=35	=35	=35
4D	.	4d]	.	1r	.	1r	.
4E	.	4c	.	.	.	.	.
4D	.	4d	.	.	.	.	.
[4G	-ci-	[4e	-ci-	.	.	.	.
=36	=36	=36	=36	=36	=36	=36	=36
4G]	.	8e]L	.	1r	.	2r	.
.	.	8dJ	.	.	.	.	.
4F	.	2d	.	.	.	.	.
*	*	*	*	*	*	*	*Xedit
*	*	*	*	*	*	*lig	*
2E	.	.	.	.	.	2g	cu-
.	.	4c#i	.	.	.	.	.
!!LO:LB:g=original
=37	=37	=37	=37	=37	=37	=37	=37
2D	-bus	2d	-bus	2r	.	2f	.
*	*	*	*	*lig	*	*Xlig	*
2r	.	2r	.	2G	cu-	2b-y	-ius
=38	=38	=38	=38	=38	=38	=38	=38
1r	.	1r	.	2F	.	4cc	.
*	*	*	*	*Xlig	*	*	*
.	.	.	.	.	.	2dd	.
.	.	.	.	2B-y	-ius	.	.
.	.	.	.	.	.	8ccL	.
.	.	.	.	.	.	8b-yJ	.
=39	=39	=39	=39	=39	=39	=39	=39
1r	.	1r	.	2.c	pre-	2a	.
.	.	.	.	.	.	4r	.
.	.	.	.	[4d	.	[4b-y	pre-
=40	=40	=40	=40	=40	=40	=40	=40
1r	.	1r	.	4d]	.	4b-]	.
.	.	.	.	4c	.	4a	.
.	.	.	.	4d	.	4b-y	.
.	.	.	.	4e	.	4cc	.
=41	=41	=41	=41	=41	=41	=41	=41
1r	.	1r	.	4.f	-ci-	4a	-ci-
.	.	.	.	.	.	2dd	.
.	.	.	.	8g	.	.	.
.	.	.	.	2e	.	.	.
.	.	.	.	.	.	4cc#i	.
!!LO:PB:g=original
=42	=42	=42	=42	=42	=42	=42	=42
4.D	to-	2r	.	2d	-bus	4.dd	-bus
8E	.	.	.	.	.	8cc	.
4F	.	[2d	to-	4.d	to-	4a	.
[4G	.	.	.	.	.	4b-y	.
.	.	.	.	8c	.	.	.
=43	=43	=43	=43	=43	=43	=43	=43
4G]	.	1d]	.	2B-y	.	8ccL	.
.	.	.	.	.	.	8b-y	.
4F	.	.	.	.	.	8a	.
.	.	.	.	.	.	8gJ	.
2D	-ta	.	.	2A	.	2f	.
=44	=44	=44	=44	=44	=44	=44	=44
*	*	*lig	*	*lig	*	*	*
2r	.	2c	-ta	2c	-ta	4r	.
.	.	.	.	.	.	4.g	to-
2G	pa-	2B-y	pa-	2d	.	.	.
*	*	*Xlig	*	*Xlig	*	*	*
.	.	.	.	.	.	8f	.
.	.	.	.	.	.	4g	-ta
=45	=45	=45	=45	=45	=45	=45	=45
4A	.	4.A	.	4r	.	4f	.
2F	.	.	.	2c	pa-	4.a	pa-
.	.	8B-y	.	.	.	.	.
.	.	4c	.	.	.	.	.
.	.	.	.	.	.	8g	.
4D	.	[4d	.	8B-yL	.	4f	.
.	.	.	.	8AJ	.	.	.
=46	=46	=46	=46	=46	=46	=46	=46
4G	.	4d]	.	4B-y	.	2e-j	.
4A	.	4c	.	4c	.	.	.
2D	.	2d	.	4A	.	4d	.
.	.	.	.	[4B-y	.	[4b-y	.
!!LO:LB:g=original
=47	=47	=47	=47	=47	=47	=47	=47
2G	.	8dL	.	8B-]L	.	8b-]L	.
.	.	8c	.	8cJ	.	8a	.
.	.	8B-y	.	4.d	.	8g	.
.	.	8AJ	.	.	.	8fJ	.
4GG	.	4B-y	.	.	.	4g	.
.	.	.	.	8e	.	.	.
[4AA	.	4A	.	[4f	.	4f	.
=48	=48	=48	=48	=48	=48	=48	=48
4AA]	.	4c	.	8f]L	.	4a	.
.	.	.	.	8e	.	.	.
2.GG	-tri-	4d	.	8g	.	4b-y	.
.	.	.	.	8fJ	.	.	.
.	.	2B-y	-tri-	4.d	-tri-	4.g	-tri-
.	.	.	.	8e	.	8f	.
=49	=49	=49	=49	=49	=49	=49	=49
4.D	-a	2A	-a	4f	-a	2a	-a
.	.	.	.	4.d	.	.	.
8E	.	.	.	.	.	.	.
4F	.	2r	.	.	.	2r	.
.	.	.	.	8cL	.	.	.
[4D	.	.	.	8B-y	.	.	.
.	.	.	.	8AJ	.	.	.
=50	=50	=50	=50	=50	=50	=50	=50
4D]	.	1r	.	4B-y	.	1r	.
4C	.	.	.	2A	.	.	.
2BB-y	.	.	.	.	.	.	.
.	.	.	.	4G	.	.	.
=51	=51	=51	=51	=51	=51	=51	=51
4.AA	Lom-	1r	.	2.A	Lom-	2.cc	Lom-
8BB-y	.	.	.	.	.	.	.
4C	.	.	.	.	.	.	.
4D	.	.	.	4B-y	.	4b-y	.
!!LO:LB:g=original
=52	=52	=52	=52	=52	=52	=52	=52
4C	-bar-	2.c	Lom-	2c	-bar-	2a	-bar-
4F	.	.	.	.	.	.	.
*	*	*	*	*lig	*	*	*
4E	.	.	.	2G	-di-	4g	.
4G	.	4B-y	.	.	.	[4g	-di-
=53	=53	=53	=53	=53	=53	=53	=53
2D	-di-	2A	-bar-	2.d	.	4g]	.
*	*	*	*	*Xlig	*	*	*
.	.	.	.	.	.	4f	.
2GG	.	2G	-di-	.	.	4g	.
.	.	.	.	4e-j	.	4b-y	.
=54	=54	=54	=54	=54	=54	=54	=54
2.D	.	2F	.	2f	.	4a	.
.	.	.	.	.	.	4.dd	.
.	.	4G	.	[2d	.	.	.
.	.	.	.	.	.	8ccL	.
[4G	.	[4B-y	.	.	.	8b-y	.
.	.	.	.	.	.	8aJ	.
=55	=55	=55	=55	=55	=55	=55	=55
4G]	.	4B-]	.	4d]	.	4b-y	.
4C	.	4c	.	4e-j	.	2g	.
2D	.	2A	.	2d	.	.	.
.	.	.	.	.	.	4f#i	.
=56	=56	=56	=56	=56	=56	=56	=56
1GG	-e	2G	-e	1B-y	-e	2g	-e
.	.	2r	.	.	.	2r	.
!!LO:LB:g=original
=57	=57	=57	=57	=57	=57	=57	=57
!!!ONB: no mensuration change, coloration used
*M3/2	*	*M3/2	*	*M3/2	*	*M3/2	*
!!LO:TX:t=[whole]=[whole-dot]
*col	*	*col	*	*	*	*	*
1D	fu-	1F	fu-	1.r	.	1.r	.
2E	-it	2G	-it	.	.	.	.
=58	=58	=58	=58	=58	=58	=58	=58
*	*	*	*edit	*	*	*	*
2.D	li-	2.F	li-	1.r	.	1.r	.
4E	.	4G	.	.	.	.	.
2C	.	2A	.	.	.	.	.
=59	=59	=59	=59	=59	=59	=59	=59
2BB-y	-be-	2.B-y	-be-	1.r	.	1.r	.
1E-X	.	.	.	.	.	.	.
.	.	4A	.	.	.	.	.
.	.	2G	.	.	.	.	.
=60	=60	=60	=60	=60	=60	=60	=60
2.F	-ra-	2.A	-ra-	1.r	.	1.r	.
4E-i	.	4B-y	.	.	.	.	.
[2C	.	4c	.	.	.	.	.
.	.	4B-y	.	.	.	.	.
=61	=61	=61	=61	=61	=61	=61	=61
2C]	.	2.G	-ta,	1.r	.	1.r	.
1E-i	-ta,	.	.	.	.	.	.
.	.	4A	.	.	.	.	.
.	.	4B-y	.	.	.	.	.
.	.	4G	.	.	.	.	.
=62	=62	=62	=62	=62	=62	=62	=62
*	*edit	*	*	*	*	*	*
2E-i	li-	2c	li-	1.r	.	1.r	.
2.F	.	2A	.	.	.	.	.
.	.	2d	.	.	.	.	.
4D	.	.	.	.	.	.	.
!!LO:PB:g=original
=63	=63	=63	=63	=63	=63	=63	=63
2.F	-be-	2.d	-be-	1.r	.	1.r	.
4E-i	.	4c	.	.	.	.	.
4D	.	4B-y	.	.	.	.	.
4C	.	4A	.	.	.	.	.
=64	=64	=64	=64	=64	=64	=64	=64
2D	-ra-	2B-y	-ra-	1.r	.	1.r	.
1C	.	2.A	.	.	.	.	.
.	.	4G	.	.	.	.	.
=65	=65	=65	=65	=65	=65	=65	=65
2BB-y	.	1G	.	1.r	.	1.r	.
1AA	.	.	.	.	.	.	.
.	.	2F#i	.	.	.	.	.
*Xcol	*	*Xcol	*	*	*	*	*
=66	=66	=66	=66	=66	=66	=66	=66
!!!ONB: no mensuration change, coloration used
!!LO:TX:t=[whole-dot]=[whole]
*M2/2	*	*M2/2	*	*M2/2	*	*M2/2	*
2GG	-ta,	1G	-ta,	2.d	fu-	1r	.
2G	fu-	.	.	.	.	.	.
.	.	.	.	4e	-it	.	.
=67	=67	=67	=67	=67	=67	=67	=67
2F	-it	1r	.	2f	li-	2a	fu-
[2D	li-	.	.	4f	-be-	4a	-it
.	.	.	.	[4f	-ra-	[4a	li-
!!LO:LB:g=original
=68	=68	=68	=68	=68	=68	=68	=68
4D]	.	1r	.	4f]	.	4a]	.
4F	.	.	.	8eL	.	8gL	.
.	.	.	.	8dJ	.	8fJ	.
2E	-be-	.	.	2c	.	2g	-be-
=69	=69	=69	=69	=69	=69	=69	=69
*	*	*	*Xedit	*	*	*	*
2.D	-ra-	2d	li-	4r	.	4.f	-ra-
.	.	.	.	2f	.	.	.
.	.	.	.	.	.	8g	.
.	.	4d	-be-	.	.	4a	.
4BB-y	.	[4d	-ra-	[4f	-ta	[4b-y	.
=70	=70	=70	=70	=70	=70	=70	=70
1F	.	4d]	.	4f]	.	4b-]	.
.	.	8cL	.	8eL	.	8aL	.
.	.	8B-yJ	.	8dJ	.	8gJ	.
.	.	2c	.	2f	.	2a	.
=71	=71	=71	=71	=71	=71	=71	=71
2.BB-y	-ta	1B-y	-ta	4r	.	2b-y	-ta
.	.	.	.	2d	a	.	.
.	.	.	.	.	.	2r	.
4C	.	.	.	4e	.	.	.
=72	=72	=72	=72	=72	=72	=72	=72
*	*Xedit	*	*	*	*	*	*
*	*	*	*	*	*	*lig	*
2D	a	1r	.	8fL	pe-	2f	a
.	.	.	.	8e	.	.	.
.	.	.	.	8d	.	.	.
.	.	.	.	8cJ	.	.	.
4GG	.	.	.	4B-y	.	2g	.
*	*	*	*	*	*	*Xlig	*
[4G	pe-	.	.	[4d	-sti-	.	.
!!LO:LB:g=original
=73	=73	=73	=73	=73	=73	=73	=73
*	*	*	*	*	*	*lig	*
2G]	.	2r	.	4d]	.	2b-y	.
.	.	.	.	4e	.	.	.
*	*	*lig	*	*	*	*	*
2D	-sti-	2F	a	2f	.	2a	.
*	*	*	*	*	*	*Xlig	*
.	.	.	.	.	.	.	.
=74	=74	=74	=74	=74	=74	=74	=74
2GG	.	2G	.	4e	.	4r	.
*	*	*Xlig	*	*	*	*	*
.	.	.	.	2d	-fe-	2dd	pe-
*	*	*lig	*	*	*	*	*
2G	.	2B-y	.	.	.	.	.
.	.	.	.	4e	.	8ccL	.
.	.	.	.	.	.	8b-yJ	.
=75	=75	=75	=75	=75	=75	=75	=75
2F	.	2A	.	2c	-ra,	2cc	-sti-
*	*	*Xlig	*	*	*	*	*
4.G	.	4r	.	2r	.	4b-y	.
.	.	[4d	pe-	.	.	8aL	.
16FLL	.	.	.	.	.	8gJ	.
16EJJ	.	.	.	.	.	.	.
=76	=76	=76	=76	=76	=76	=76	=76
*	*	*	*	*	*edit	*	*
4D	-fe-	4d]	.	2B-y	pe-	4.f	-fe-
4G	.	8cL	.	.	.	.	.
.	.	8B-yJ	.	.	.	8g	.
2F	.	2c	-sti-	2A	.	2a	.
=77	=77	=77	=77	=77	=77	=77	=77
2G	-ra,	4B-y	.	2G	.	2d	-ra,
.	.	4.d	.	.	.	.	.
4r	.	.	.	[2d	-sti-	4r	.
.	.	8c	.	.	.	.	.
*	*edit	*	*	*	*	*	*edit
[4GG	pe-	[4B-y	.	.	.	[4dd	pe-
!!LO:LB:g=original
=78	=78	=78	=78	=78	=78	=78	=78
8GG]L	.	4B-]	.	4d]	.	4dd]	.
8AA	.	.	.	.	.	.	.
8BB-y	.	8AL	.	4e	.	8ccL	.
8GGJ	.	8GJ	.	.	.	8b-yJ	.
2D	-sti-	4A	.	2f	.	4a	-sti-
.	.	[4B-y	.	.	.	4dd	.
=79	=79	=79	=79	=79	=79	=79	=79
*lig	*	*	*	*	*	*	*
2BB-y	-fe-	8B-]L	.	8eL	.	8ccL	.
.	.	8AJ	.	8dJ	.	8b-yJ	.
.	.	4B-y	.	2d	-fe-	2b-y	-fe-
2F	.	2c	-fe-	.	.	.	.
*Xlig	*	*	*	*	*	*	*
.	.	.	.	4c	.	4a	.
=80	=80	=80	=80	=80	=80	=80	=80
2BB-y	-ra	1B-y	-ra	2d	-ra	2b-y	-ra
2GG	.	.	.	2g	.	2r	.
=81	=81	=81	=81	=81	=81	=81	=81
*	*Xedit	*	*	*	*Xedit	*	*Xedit
4.D	pe-	1r	.	2.f	pe-	2.a	pe-
8E	.	.	.	.	.	.	.
4F	.	.	.	.	.	.	.
[4G	.	.	.	8e-iL	.	[4b-y	.
.	.	.	.	8dJ	.	.	.
=82	=82	=82	=82	=82	=82	=82	=82
4G]	.	2r	.	4.e-X	.	4b-]	.
8FL	.	.	.	.	.	8aL	.
8EJ	.	.	.	8c	.	8gJ	.
[2D	.	[2A	pe-	2f	.	[2f	.
!!LO:PB:g=original
=83	=83	=83	=83	=83	=83	=83	=83
4D]	.	4A]	.	2.d	.	4f]	.
2G	.	2B-y	.	.	.	2g	.
4A	.	8AL	.	8cL	.	8fL	.
.	.	8GJ	.	8B-yJ	.	8gJ	.
=84	=84	=84	=84	=84	=84	=84	=84
2.D	.	2.F	.	2A	.	2.a	.
.	.	.	.	[2d	.	.	.
[4GG	.	[4G	.	.	.	[4b-y	.
=85	=85	=85	=85	=85	=85	=85	=85
4GG]	.	4G]	.	4d]	.	4b-]	.
4D	.	4F	.	4.f	.	4a	.
4G	.	4G	.	.	.	4b-y	.
.	.	.	.	8d	.	.	.
4D	.	4F	.	[4d	.	[4a	.
=86	=86	=86	=86	=86	=86	=86	=86
*	*	*lig	*	*	*	*	*
2E	.	2G	.	4d]	.	8a]L	.
.	.	.	.	.	.	8gJ	.
.	.	.	.	4c	.	2g	.
2D	.	2A	.	2d	.	.	.
*	*	*Xlig	*	*	*	*	*
.	.	.	.	.	.	4f#i	.
=87	=87	=87	=87	=87	=87	=87	=87
0GG	-ste,	0G	-ste,	0d	-ste,	0g	-ste,
!!LO:LB:g=original
=88||	=88||	=88||	=88||	=88||	=88||	=88||	=88||
1r	.	1r	.	[1B-y	li-	1r	.
=89	=89	=89	=89	=89	=89	=89	=89
1r	.	1r	.	2B-]	.	1g	li-
.	.	.	.	[2c	-be-	.	.
=90	=90	=90	=90	=90	=90	=90	=90
1r	.	1r	.	2c]	.	2.a	-be-
.	.	.	.	2A	.	.	.
.	.	.	.	.	.	4f	.
=91	=91	=91	=91	=91	=91	=91	=91
*	*	*	*	*lig	*	*	*
1r	.	1r	.	2B-y	-ra	2g	-ra
.	.	.	.	2A	.	2f	.
*	*	*	*	*Xlig	*	*	*
=92	=92	=92	=92	=92	=92	=92	=92
1r	.	1r	.	2G	.	2b-y	.
.	.	.	.	4F	.	4a	.
.	.	.	.	[4G	.	[4b-y	.
!!LO:LB:g=original
=93	=93	=93	=93	=93	=93	=93	=93
1r	.	1r	.	8G]L	.	4b-]	.
.	.	.	.	8AJ	.	.	.
.	.	.	.	4B-y	.	8aL	.
.	.	.	.	.	.	8gJ	.
.	.	.	.	8cL	.	8aL	.
.	.	.	.	8B-y	.	8g	.
.	.	.	.	8A	.	8f	.
.	.	.	.	8GJ	.	8eJ	.
=94	=94	=94	=94	=94	=94	=94	=94
1D	li-	1r	.	4.A	nos,	4.f	nos,
.	.	.	.	8G	.	8e	.
.	.	.	.	2A	.	2f	.
=95	=95	=95	=95	=95	=95	=95	=95
1E-X	-be-	[1B-y	li-	1r	.	1r	.
=96	=96	=96	=96	=96	=96	=96	=96
2D	-ra	2B-]	.	1r	.	1r	.
2C	.	[2c	-be-	.	.	.	.
=97	=97	=97	=97	=97	=97	=97	=97
1F	.	2c]	.	1r	.	1r	.
.	.	2A	.	.	.	.	.
=98	=98	=98	=98	=98	=98	=98	=98
2G	.	2B-y	-ra	1r	.	1r	.
4F	.	4A	.	.	.	.	.
4G	.	[4B-y	.	.	.	.	.
!!LO:LB:g=original
=99	=99	=99	=99	=99	=99	=99	=99
4.D	.	4B-]	.	1r	.	1r	.
.	.	8AL	.	.	.	.	.
8E	.	8GJ	.	.	.	.	.
4F	.	4A	.	.	.	.	.
[4G	.	[4B-y	.	.	.	.	.
=100	=100	=100	=100	=100	=100	=100	=100
4G]	.	4B-]	.	1r	.	1r	.
4F	.	4A	.	.	.	.	.
4G	.	4B-y	.	.	.	.	.
4C	.	4c	.	.	.	.	.
=101	=101	=101	=101	=101	=101	=101	=101
4.D	.	4A	.	1r	.	1r	.
.	.	2d	.	.	.	.	.
8E	.	.	.	.	.	.	.
4.F	.	.	.	.	.	.	.
.	.	8cL	.	.	.	.	.
8G	.	8B-yJ	.	.	.	.	.
=102	=102	=102	=102	=102	=102	=102	=102
2E	nos,	2c	nos,	2r	.	2r	.
2D	.	2r	.	2d	li-	2a	li-
=103	=103	=103	=103	=103	=103	=103	=103
1r	.	1r	.	4.d	.	2b-y	.
.	.	.	.	8e	.	.	.
.	.	.	.	4f	.	4a	.
.	.	.	.	[4g	-be-	[4b-y	-be-
!!LO:PB:g=original
=104	=104	=104	=104	=104	=104	=104	=104
1r	.	1r	.	4g]	.	4b-]	.
.	.	.	.	8fL	.	8aL	.
.	.	.	.	8eJ	.	8gJ	.
.	.	.	.	2d	-ra	4a	-ra
.	.	.	.	.	.	[4b-y	.
=105	=105	=105	=105	=105	=105	=105	=105
1r	.	1r	.	4g	.	4b-]	.
.	.	.	.	4f	.	4a	.
.	.	.	.	4g	.	4b-y	.
.	.	.	.	4e	.	4cc	.
=106	=106	=106	=106	=106	=106	=106	=106
1r	.	1r	.	4.f	.	4a	.
.	.	.	.	.	.	2dd	.
.	.	.	.	8g	.	.	.
.	.	.	.	4f	.	.	.
.	.	.	.	8eL	.	8ccL	.
.	.	.	.	8dJ	.	8b-yJ	.
=107	=107	=107	=107	=107	=107	=107	=107
2r	.	1r	.	4c	.	4cc	.
.	.	.	.	4d	.	4a	.
2AA	li-	.	.	2e	.	8ccL	.
.	.	.	.	.	.	8b-y	.
.	.	.	.	.	.	8a	.
.	.	.	.	.	.	8gJ	.
=108	=108	=108	=108	=108	=108	=108	=108
*	*	*	*	*	*edit	*	*edit
2.BB-y	.	[1d	li-	2d	nos,	2f	nos,
.	.	.	.	2r	.	4r	.
*	*	*	*	*	*	*lig	*
4C	.	.	.	.	.	[4f	li-
!!LO:LB:g=original
=109	=109	=109	=109	=109	=109	=109	=109
2.D	-be-	1d]	.	[1f	li-	4f]	.
.	.	.	.	.	.	2b-y	.
*	*	*	*	*	*	*Xlig	*
4E	.	.	.	.	.	8aL	.
.	.	.	.	.	.	8gJ	.
=110	=110	=110	=110	=110	=110	=110	=110
*lig	*	*lig	*	*	*	*	*
2F	-ra	2c	-be-	2f]	.	2a	-be-
2G	.	2B-y	.	4.d	-be-	2b-y	.
*Xlig	*	*Xlig	*	*	*	*	*
.	.	.	.	8e	.	.	.
=111	=111	=111	=111	=111	=111	=111	=111
*	*	*lig	*	*	*	*	*
2F	.	2c	-ra	4.f	.	4a	-ra
.	.	.	.	.	.	4.a	.
.	.	.	.	8e	.	.	.
*	*	*	*	*lig	*	*	*
2E-X	.	2G	.	2c	-ra	.	.
*	*	*Xlig	*	*	*	*	*
.	.	.	.	.	.	8gL	.
.	.	.	.	.	.	8f	.
.	.	.	.	.	.	8e-jJ	.
=112	=112	=112	=112	=112	=112	=112	=112
1D	.	1A	.	2d	.	4f	.
*	*	*	*	*Xlig	*	*	*
.	.	.	.	.	.	2g	.
.	.	.	.	[2d	.	.	.
.	.	.	.	.	.	4f#i	.
=113	=113	=113	=113	=113	=113	=113	=113
*	*	*	*	*	*	*	*Xedit
2GG	nos	1G	nos	4d]	.	2.g	nos
.	.	.	.	4.e-X	.	.	.
2G	.	.	.	.	.	.	.
.	.	.	.	8d	.	.	.
.	.	.	.	[4d	.	4f	.
!!LO:LB:g=original
=114	=114	=114	=114	=114	=114	=114	=114
*	*	*	*	*	*	*lig	*
2A	ab	1r	.	4d]	.	2e	ab
.	.	.	.	4c	.	.	.
*lig	*	*	*	*	*	*	*
2D	i-	.	.	4f	.	2d	.
*	*	*	*	*	*	*Xlig	*
.	.	.	.	8e-iL	.	.	.
.	.	.	.	8dJ	.	.	.
=115	=115	=115	=115	=115	=115	=115	=115
*	*	*	*	*	*Xedit	*	*
2E-j	.	2G	ab	4.c	nos	2g	i-
*Xlig	*	*	*	*	*	*	*
.	.	.	.	8B-y	.	.	.
4D	.	[2B-y	i-	2d	.	4f	.
[4G	.	.	.	.	.	[4b-y	.
=116	=116	=116	=116	=116	=116	=116	=116
4G]	.	4B-]	.	2r	.	4b-]	.
4F	.	2.c	.	.	.	4a	.
2E-j	.	.	.	2e-j	ab	4.g	.
.	.	.	.	.	.	16fL	.
.	.	.	.	.	.	16e-jJ	.
=117	=117	=117	=117	=117	=117	=117	=117
2.D	.	1d	.	1f	i-	4.f	.
.	.	.	.	.	.	8g	.
.	.	.	.	.	.	8aL	.
.	.	.	.	.	.	16gL	.
.	.	.	.	.	.	16aJJ	.
4BB-y	.	.	.	.	.	[4b-y	.
=118	=118	=118	=118	=118	=118	=118	=118
2F	.	2c	.	8fL	.	4b-]	.
.	.	.	.	8dJ	.	.	.
.	.	.	.	4.f	.	4a	.
4.BB-y	.	4d	.	.	.	4b-y	.
.	.	.	.	8e-j	.	.	.
.	.	[4B-y	.	[4d	.	8aL	.
8C	.	.	.	.	.	8gJ	.
!!LO:LB:g=original
=119	=119	=119	=119	=119	=119	=119	=119
4D	.	4B-]	.	4d]	.	4f	.
4E-j	.	8AL	.	4c	.	2g	.
.	.	8GJ	.	.	.	.	.
2D	.	2A	.	4d	-psa	.	.
.	.	.	.	4r	.	4f#i	.
=120	=120	=120	=120	=120	=120	=120	=120
1GG	-psa	1G	-psa	2.d	et	1g	-psa
.	.	.	.	4e	.	.	.
=121	=121	=121	=121	=121	=121	=121	=121
2.D	et	1r	.	2.f	a	1r	.
4E	.	.	.	8eL	.	.	.
.	.	.	.	8dJ	.	.	.
=122	=122	=122	=122	=122	=122	=122	=122
2.F	a	1r	.	2c	ma-	1r	.
.	.	.	.	2f	-li-	.	.
8EL	.	.	.	.	.	.	.
8DJ	.	.	.	.	.	.	.
=123	=123	=123	=123	=123	=123	=123	=123
4C	ma-	1r	.	4e	.	1r	.
4BB-y	.	.	.	2d	.	.	.
4.D	-li-	.	.	.	.	.	.
.	.	.	.	8cL	.	.	.
8E	.	.	.	8B-yJ	.	.	.
!!LO:PB:g=original
=124	=124	=124	=124	=124	=124	=124	=124
4F	.	1r	.	4A	.	1r	.
4.D	.	.	.	4.B-y	.	.	.
8CL	.	.	.	8AL	.	.	.
8BB-y	.	.	.	8G	.	.	.
8AAJ	.	.	.	8FJ	.	.	.
=125	=125	=125	=125	=125	=125	=125	=125
2BB-y	.	1r	.	2G	.	1r	.
2AA	-gno,	.	.	2A	-gno,	.	.
=126	=126	=126	=126	=126	=126	=126	=126
2r	.	1A	et	2D	.	2.f	et
*	*edit	*	*	*	*	*	*
[2D	et	.	.	2r	.	.	.
.	.	.	.	.	.	4g	.
=127	=127	=127	=127	=127	=127	=127	=127
*	*	*	*	*	*edit	*	*
2D]	.	2A	a	2.d	et	2a	a
2G	a	2G	.	.	.	2b-y	.
.	.	.	.	4e	.	.	.
=128	=128	=128	=128	=128	=128	=128	=128
*	*	*	*	*lig	*	*	*
2F	ma-	4.A	ma-	2f	.	2a	ma-
.	.	16GLL	.	.	.	.	.
.	.	16AJJ	.	.	.	.	.
2G	-li-	[2B-y	-li-	2d	.	[2dd	-li-
*	*	*	*	*Xlig	*	*	*
!!LO:LB:g=original
=129	=129	=129	=129	=129	=129	=129	=129
2D	.	4B-]	.	1r	.	4dd]	.
.	.	8AL	.	.	.	8ccL	.
.	.	8B-yJ	.	.	.	8b-yJ	.
2F	.	[2c	.	.	.	2a	.
=130	=130	=130	=130	=130	=130	=130	=130
4E	.	4c]	.	1r	.	4cc	.
4D	.	2d	.	.	.	2b-y	.
4G	.	.	.	.	.	.	.
4A	.	4c	.	.	.	[4a	.
=131	=131	=131	=131	=131	=131	=131	=131
*	*	*lig	*	*	*	*	*
4F	.	2A	.	4r	.	4a]	.
4D	.	.	.	2d	a	8gL	.
.	.	.	.	.	.	8fJ	.
2G	.	2B-y	.	.	.	2g	.
*	*	*Xlig	*	*	*	*	*
.	.	.	.	4d	ma-	.	.
=132	=132	=132	=132	=132	=132	=132	=132
2D	-gno,	2A	-gno,	1d	-li-	1a	-gno,
2r	.	2r	.	.	.	.	.
=133	=133	=133	=133	=133	=133	=133	=133
*	*Xedit	*	*	*	*	*	*
1D	ut	[1d	ut	2A	-gno,	1r	.
.	.	.	.	2r	.	.	.
=134	=134	=134	=134	=134	=134	=134	=134
*	*	*	*	*	*Xedit	*	*
2D	di-	1d]	.	1A	ut	1r	.
[2D	-gni	.	.	.	.	.	.
!!LO:LB:g=original
=135	=135	=135	=135	=135	=135	=135	=135
2D]	.	2d	di-	2A	di-	1a	ut
[2D	ef-	2d	-gni	2A	-gni	.	.
=136	=136	=136	=136	=136	=136	=136	=136
2D]	.	4r	.	4r	.	2a	di-
.	.	[2.d	ef-	2d	ef-	.	.
4.D	-fi-	.	.	.	.	2a	-gni
.	.	.	.	8cL	.	.	.
8E	.	.	.	8B-yJ	.	.	.
=137	=137	=137	=137	=137	=137	=137	=137
2F	-ci-	4d]	.	2A	-fi-	2r	.
.	.	4c	-fi-	.	.	.	.
2G	-a-	2B-y	-ci-	4G	-ci-	4r	.
.	.	.	.	4g	.	[4dd	ef-
=138	=138	=138	=138	=138	=138	=138	=138
4D	.	2A	-a-	2f	-a-	4dd]	.
4F	.	.	.	.	.	4cc	-fi-
4r	.	4G	.	4g	.	4b-y	-ci-
4F	.	4F	.	4r	.	8ccL	-a-
.	.	.	.	.	.	8b-yJ	.
=139	=139	=139	=139	=139	=139	=139	=139
4G	.	4B-y	.	4d	.	8aL	.
.	.	.	.	.	.	8gJ	.
4C	.	4c	.	4e-j	.	2g	.
2D	.	2A	.	2d	.	.	.
.	.	.	.	.	.	4f#i	.
=140	=140	=140	=140	=140	=140	=140	=140
2GG;	-mur	2G;	-mur	2d;	-mur	2g;	-mur
2r	.	2r	.	2r	.	2r	.
!!LO:LB:g=original
=141	=141	=141	=141	=141	=141	=141	=141
*	*	*lig	*	*	*	*lig	*
1G	pro-	1B-y	pro-	[1d	pro-	1g	pro-
=142	=142	=142	=142	=142	=142	=142	=142
1D	.	1A	.	1d]	.	1f	.
*	*	*Xlig	*	*	*	*Xlig	*
=143	=143	=143	=143	=143	=143	=143	=143
!!!ONB: no mensuration change, coloration used
*M3/2	*	*M3/2	*	*M3/2	*	*M3/2	*
*col	*	*col	*	*col	*	*col	*
!!LO:TX:t=[whole] = [whole-dot]
1E-i	-mis-	1G	-mis-	1g	-mis-	1b-y	-mis-
[2E-i	-si-	[2B-y	-si-	[2g	-si-	2b-y	-si-
=144	=144	=144	=144	=144	=144	=144	=144
4E-]	.	2B-]	.	4g]	.	2g	.
4D	.	.	.	4f	.	.	.
1C	.	1c	.	1e	.	1a	.
=145	=145	=145	=145	=145	=145	=145	=145
1BB-y	-o-	1d	-o-	[1.f	-o-	1b-y	-o-
[2F	.	2c	.	.	.	[2a	.
=146	=146	=146	=146	=146	=146	=146	=146
2F]	.	2A	.	2f]	.	2a]	.
1G	-ni-	1B-y	-ni-	2.d	-ni-	1g	-ni-
.	.	.	.	4c	.	.	.
*Xcol	*	*Xcol	*	*Xcol	*	*Xcol	*
!!LO:LB:g=original
=147	=147	=147	=147	=147	=147	=147	=147
*M2/2	*	*M2/2	*	*M2/2	*	*M2/2	*
!!LO:TX:t=[whole-dot] = [whole]
1D;	-bus	1A;	-bus	1d;	-bus	1f#j;	-bus
=148	=148	=148	=148	=148	=148	=148	=148
*lig	*	*	*	*	*	*lig	*
2D	Chri-	1r	.	2d	Chri-	2a	Chri-
2G	.	.	.	4.d	.	2b-y	.
*Xlig	*	*	*	*	*	*Xlig	*
.	.	.	.	8e	.	.	.
=149	=149	=149	=149	=149	=149	=149	=149
4F	.	2r	.	4.f	.	4a	.
4G	.	.	.	.	.	4b-y	.
.	.	.	.	16eLL	.	.	.
.	.	.	.	16dJJ	.	.	.
*	*	*lig	*	*	*	*	*
8AL	.	2A	Chri-	4.c	.	8ccL	.
8G	.	.	.	.	.	8b-y	.
8F	.	.	.	.	.	8a	.
8EJ	.	.	.	8B-y	.	8gJ	.
=150	=150	=150	=150	=150	=150	=150	=150
4.D	.	2B-y	.	2d	.	2f	-sti,
*	*	*Xlig	*	*	*	*	*
8E	.	.	.	.	.	.	.
4F	.	4A	.	4c	.	4r	.
*	*	*	*	*	*	*	*edit
4BB-y	.	4B-y	.	4d	.	[4f	Chri-
=151	=151	=151	=151	=151	=151	=151	=151
4.F	.	8cL	.	4c	.	4f]	.
.	.	8B-y	.	.	.	.	.
.	.	8A	.	4.d	.	4g	.
8E	.	8GJ	.	.	.	.	.
[2D	.	[2F	.	.	.	2a	.
.	.	.	.	8e	.	.	.
.	.	.	.	[4f	.	.	.
!!LO:LB:g=original
=152	=152	=152	=152	=152	=152	=152	=152
4D]	.	4F]	.	8f]	.	4a	.
.	.	.	.	8eL	.	.	.
4GG	.	2G	.	8.d	.	4.b-y	.
.	.	.	.	16B-yJk	.	.	.
2G	.	.	.	4.d	.	.	.
.	.	.	.	.	.	8a	.
.	.	4B-y	.	.	.	[4dd	.
.	.	.	.	8e	.	.	.
=153	=153	=153	=153	=153	=153	=153	=153
4F	.	4A	.	8fL	.	8dd]L	.
.	.	.	.	8e	.	8cc	.
2G	.	2d	.	8d	.	8b-y	.
.	.	.	.	8cJ	.	8aJ	.
.	.	.	.	4B-y	.	4b-y	.
4A	.	[4c	.	4c	.	[4a	.
=154	=154	=154	=154	=154	=154	=154	=154
4F	.	8c]L	.	4A	.	8a]L	.
.	.	8B-yJ	.	.	.	8gJ	.
4G	.	4G	.	4.d	.	2g	.
2D	.	2A	.	.	.	.	.
.	.	.	.	8c	.	.	.
.	.	.	.	4d	.	4f#i	.
=155	=155	=155	=155	=155	=155	=155	=155
[1GGl	-sti.	[1Gl	-sti.	2e-j	.	[1gl	-sti.
.	.	.	.	4.d	.	.	.
.	.	.	.	8c	.	.	.
=156	=156	=156	=156	=156	=156	=156	=156
1GG]	.	1G]	.	2d	.	1g]	.
.	.	.	.	2dl	-sti.	.	.
==	==	==	==	==	==	==	==
*-	*-	*-	*-	*-	*-	*-	*-
!!!system-decoration: [*]
!!!RDF**kern: j = editorial accidental, optional, paren up
!!!RDF**kern: i = editorial accidental
!!!RDF**kern: l = terminal breve
!!!PTL: Gaspar van Weerbeke: Collected Works. IV. Motets
!!!PPR: American Institute of Musicology
!!!PC#: Corpus Mensurabilis Musicae 106/IV
!!!PDT: 2010
!!!PED: Pavanello, Agnese
!!!YEC: Copyright 2010, Pavanello, Agnese
!!!YEM: CC-BY-SA 4.0 (https://creativecommons.org/licenses/by-nc/4.0/legalcode)
!!!EED: Mair-Gruber, Roland
!!!EEV: 2021/09/06
